X: 1
T: Forteviot Jig
C: Angus Fitchet
R: jig
B: Hugh Foss, "The ANGUS FITCHET Album" 1954
Z: 2010 John Chambers <jc:trillian.mit.edu>
M: 6/8
L: 1/8
K: Em
B, \
| "Em"E2G "B7"F2A | "Em"G2B "D7"A2c | "Em"B2e eBA | G2E "B7"F2B \
| "Em"b2B "Bm"a2B | "Em"g2B "B7"f2c | "Em"BcB "B7"AGF | "Em"E3- E2 :|
d \
| "G"gfg dBc | dge dcB | "Am"a^ga ecd | eag "D7"fed \
| "G"gfg dBc | dge dcB | "B7"AcB AGF | "Em"E3 "D7"d3 ||
y \
| "G"gdB GBd | gfg dcB | "Am"aec Ace | "A7"a^ga "D7"fed \
| "G"bgb "D7"afa | "Em"gef "Cdim"g2c | "Em"BcB "B7"AGF | "Em"E3 E2 |]
